X: 126
T: Not in Town
M:6/8
L:1/8
Q:160
S:Playford
O:Manuscript
A:English
K:F
a2|a2 g2 g2 a2|f2 ef d2| a2| a2 f2 g2 a2| f4 f2 a2|a2 f2 g2 a2| f2 ef d2 a2| a2 f2 g2 a2|f4 d2:|
|:e2|e2 c2 d2 e2|f2 ef d2 e2|e2 c2 d2 e2|f4 d2 e2|e2 c2 d2 e2| f2 ef d2 e2 | e2 c2 d2 e2 |f4 d2:|

